X: 18
T: No_116_Maple_Sugar.krn
%%abc-version 2.0
%%abcx-abcm2ps-target-version 5.9.1 (29 Sep 2008)
%%abc-creator hum2abc beta
%%abcx-conversion-date 2020/08/10 18:54:56
%%gracespace 0 6 6
%%humdrum-veritas 2853296530
%%humdrum-veritas-data 3774948280
%%linebreak <none>
%%barnumbers 0
L: 1/8
M: 2/4
%%staves {1 2}
V: 1 clef=bass
V: 2 clef=bass
K: G
[V:1] [K:clef=bass][M:2/4]D<DD2 | 
[V:2] [K:clef=bass][M:2/4](3!accent!G,, z G,, (3!accent!G,, z G,, | 
[V:1] EDD2 | 
[V:2] z4 | 
[V:1] D>C D/A,3/ | 
[V:2] z4 | 
[V:1] D<DD2 | 
[V:2] z4 | 
[V:1] EDD2 | 
[V:2] z4 | 
[V:1] D>C D/A,3/ ||  
[V:2] z4 ||  
[V:1] [M:3/4]D<G, G,>E,D,2 | 
[V:2] [M:3/4]z6 | 
[V:1] G,<G,G,2A,G, ||  
[V:2] z6 ||  
[V:1] [M:2/4]A,<G, G,3/E,/ | 
[V:2] [M:2/4]z4 | 
[V:1] D,2E,E, | 
[V:2] z4 | 
[V:1] D,>D,D,2- ||  
[V:2] z4 ||  
[V:1] [M:3/4]D,6 ||  
[V:2] [M:3/4]z6 ||  
[V:1] [M:2/4]A,>A, A,3/A,/ | 
[V:2] [M:2/4]z4 | 
[V:1] A,>A, A,3/A,/ | 
[V:2] z4 | 
[V:1] D>A,G,2 ||  
[V:2] z4 ||  
[V:1] [M:3/4]A,<G, G,>E,D,2 | 
[V:2] [M:3/4]z6 | 
[V:1] G,<G,G,2A,G, ||  
[V:2] z6 ||  
[V:1] [M:2/4]A,<G, G,3/E,/ | 
[V:2] [M:2/4]z4 | 
[V:1] D,2E,E, | 
[V:2] z4 | 
[V:1] D,>D,D,2- | 
[V:2] z4 | 
[V:1] D,4 |]  
[V:2] z4 |]  


